X: 41296
T: Tundra, The
R: polka
M: 2/4
K: Fmajor
K: Cmix
|:cB/c/ dc|BA GF|E>F GC|B,C G,2|
cB/c/ dc|BA GF|E>F GC|B,D C2:|
|:C/D/E/F/ Gc|dc/d/ fe/d/|ec Gc|Bc A/G/F|
Gc Bc|A/G/F G2|C/D/E/F/ GC|B,G, C2:|

